X:5
T:Leaving of Liverpool
M:2/2
L:1/4
K:G
G A|"G"B2 Bd|cBAG|"C"g3e|"G"d2GA|Bddd|edcB|("D7"A4|A2)GA|
"G"B2Bd|cBAG|"C"g3e|"G"d2GA|BddB|"D7"A2A2|("G C"G4|"G"G2)fg|"D7"a3f|
d2ef|"G"g2ge|d2GA|Bddd|edcB|("D7"A4|A2)GA|"G"B2Bd|cBAG|
"C"g3e|"G"d2GA|1 BddB|"D7"A2A2|("G"G4|"A7"G2):|2 Bddd|\
"D7"e2f2|("G C"g4|"G"g2)||
